22x22/apps/cpu-x.svg

<svg xmlns="http://www.w3.org/2000/svg" width="22" height="22" version="1"><g transform="translate(-1 -1)"><g style="fill:#8e8e8e"><path d="M21 15v1H2v-1zM21 13v1H2v-1zM21 11v1H2v-1zM21 9v1H2V9zM21 17v1H2v-1zM21 19v1H2v-1zM21 7v1H2V7zM21 5v1H2V5z"/><path d="M12 3h1v19h-1zM10 3h1v19h-1zM8 3h1v19H8zM6 3h1v19H6zM14 3h1v19h-1zM16 3h1v19h-1zM18 3h1v19h-1zM4 3h1v19H4z"/></g><rect style="opacity:.2" width="17" height="17" x="-21.5" y="-20" rx=".944" ry=".944" transform="matrix(0 -1 -1 0 0 0)"/><rect style="fill:#b7b7b7" width="17" height="17" x="-21" y="-20" rx=".944" ry=".944" transform="matrix(0 -1 -1 0 0 0)"/><path style="opacity:.2;fill:#f4f4f7" d="M3.945 4A.944.944 0 0 0 3 4.945v.5c0-.523.422-.945.945-.945h15.11c.523 0 .945.422.945.945v-.5A.944.944 0 0 0 19.055 4z"/><path style="opacity:.5" d="M12.843 14.196c-.8.373-1.544.369-2.044.333-.596-.043-1.076-.207-1.286-.349a.285.285 0 0 0-.319.47c.339.229.938.4 1.564.445.106.008.223.013.348.013.545 0 1.237-.052 1.977-.397a.284.284 0 1 0-.24-.515zm3.158-.421c.027-2.467.281-7.13-4.443-6.754-4.664.376-3.428 5.303-3.497 6.953-.062.873-.352 1.94-.761 3.026h1.261c.129-.46.225-.915.266-1.349.076.053.157.104.244.153.141.083.262.194.391.311.3.274.64.584 1.306.623.044.002.089.004.133.004.673 0 1.133-.295 1.503-.531.177-.114.33-.212.474-.259a2.563 2.563 0 0 0 1.034-.598c.042-.041.081-.083.117-.126.149.545.353 1.159.579 1.772H17.3c-.646-.998-1.313-1.976-1.299-3.224zm-7.489-1.342c-.046-.806.339-1.483.861-1.513.521-.031.982.598 1.028 1.403.002.044.004.087.004.129a2.027 2.027 0 0 0-.448.172l-.002-.017v-.001c-.044-.457-.288-.802-.545-.771-.257.031-.429.427-.384.884v.001c.019.199.077.377.157.512-.02.016-.076.057-.141.104l-.179.131c-.194-.255-.327-.621-.351-1.034zm5.285 1.99c-.019.426-.576.827-1.09.987l-.003.001c-.214.069-.404.192-.606.321-.34.217-.69.441-1.197.441l-.101-.003c-.464-.027-.681-.225-.955-.475-.145-.132-.295-.269-.489-.382l-.004-.002c-.417-.236-.676-.529-.692-.784-.008-.126.048-.236.168-.326.26-.195.434-.322.549-.407.128-.093.167-.121.196-.149l.066-.064c.239-.232.638-.62 1.252-.62.375 0 .79.144 1.232.428.208.136.389.198.619.278.157.054.336.116.576.218l.004.002c.223.092.487.259.475.536zm-.123-.999a2.11 2.11 0 0 0-.135-.062 8.274 8.274 0 0 0-.532-.205c.079-.155.128-.349.133-.559.011-.512-.247-.927-.576-.928-.33 0-.605.414-.616.925l-.001.05a2.823 2.823 0 0 0-.597-.202l-.002-.058v-.001c-.019-.931.553-1.703 1.277-1.722.724-.02 1.326.719 1.345 1.651v.001c.009.421-.104.809-.297 1.11z"/></g></svg>

<svg xmlns="http://www.w3.org/2000/svg" width="22" height="22" version="1">
 <g transform="translate(-1,-1)">
  <g style="fill:#8e8e8e">
   <rect width="1" height="19" x="15" y="-21" transform="rotate(90)"/>
   <rect width="1" height="19" x="13" y="-21" transform="rotate(90)"/>
   <rect width="1" height="19" x="11" y="-21" transform="rotate(90)"/>
   <rect width="1" height="19" x="9" y="-21" transform="rotate(90)"/>
   <rect width="1" height="19" x="17" y="-21" transform="rotate(90)"/>
   <rect width="1" height="19" x="19" y="-21" transform="rotate(90)"/>
   <rect width="1" height="19" x="7" y="-21" transform="rotate(90)"/>
   <rect width="1" height="19" x="5" y="-21" transform="rotate(90)"/>
   <rect width="1" height="19" x="12" y="3"/>
   <rect width="1" height="19" x="10" y="3"/>
   <rect width="1" height="19" x="8" y="3"/>
   <rect width="1" height="19" x="6" y="3"/>
   <rect width="1" height="19" x="14" y="3"/>
   <rect width="1" height="19" x="16" y="3"/>
   <rect width="1" height="19" x="18" y="3"/>
   <rect width="1" height="19" x="4" y="3"/>
  </g>
  <rect style="opacity:0.2" width="17" height="17" x="-21.5" y="-20" rx=".944" ry=".944" transform="matrix(0,-1,-1,0,0,0)"/>
  <rect style="fill:#b7b7b7" width="17" height="17" x="-21" y="-20" rx=".944" ry=".944" transform="matrix(0,-1,-1,0,0,0)"/>
  <path style="opacity:0.2;fill:#f4f4f7" d="M 3.9453,4 C 3.4221,4 3,4.4221 3,4.9453 V 5.4453 C 3,4.9221 3.4221,4.5 3.9453,4.5 H 19.055 C 19.578,4.5 20,4.9221 20,5.4453 V 4.9453 C 20,4.4221 19.578,4 19.055,4 Z"/>
  <path style="opacity:0.5" d="M 12.843,14.196 C 12.043,14.569 11.299,14.565 10.799,14.529 10.203,14.486 9.723,14.322 9.513,14.18 9.383,14.092 9.206,14.126 9.118,14.256 9.03,14.386 9.064,14.562 9.194,14.65 9.533,14.879 10.132,15.05 10.758,15.095 10.864,15.103 10.981,15.108 11.106,15.108 11.651,15.108 12.343,15.056 13.083,14.711 13.225,14.645 13.287,14.476 13.221,14.334 13.155,14.192 12.986,14.13 12.843,14.196 Z M 16.001,13.775 C 16.028,11.308 16.282,6.6454 11.558,7.0214 6.8935,7.3974 8.13,12.324 8.061,13.974 7.999,14.847 7.709,15.914 7.3,17 H 8.561 C 8.69,16.54 8.786,16.085 8.827,15.651 8.903,15.704 8.984,15.755 9.071,15.804 9.212,15.887 9.333,15.998 9.462,16.115 9.762,16.389 10.102,16.699 10.768,16.738 10.812,16.74 10.857,16.742 10.901,16.742 11.574,16.742 12.034,16.447 12.404,16.211 12.581,16.097 12.734,15.999 12.878,15.952 13.287,15.824 13.645,15.617 13.912,15.354 13.954,15.313 13.993,15.271 14.029,15.228 14.178,15.773 14.382,16.387 14.608,17 H 17.3 C 16.654,16.002 15.987,15.024 16.001,13.776 Z M 8.512,12.433 C 8.512,12.433 8.512,12.433 8.512,12.433 8.466,11.627 8.851,10.95 9.373,10.92 9.894,10.889 10.355,11.518 10.401,12.323 10.401,12.323 10.401,12.323 10.401,12.323 10.403,12.367 10.405,12.41 10.405,12.452 10.239,12.494 10.09,12.554 9.957,12.624 9.956,12.618 9.956,12.612 9.955,12.607 V 12.606 C 9.911,12.149 9.667,11.804 9.41,11.835 9.153,11.866 8.981,12.262 9.026,12.719 9.026,12.72 9.026,12.72 9.026,12.72 9.045,12.919 9.103,13.097 9.183,13.232 9.163,13.248 9.107,13.289 9.042,13.336 8.993,13.371 8.934,13.415 8.863,13.467 8.669,13.212 8.536,12.846 8.512,12.433 Z M 13.797,14.423 C 13.778,14.849 13.221,15.25 12.707,15.41 L 12.704,15.411 C 12.49,15.48 12.3,15.603 12.098,15.732 11.758,15.949 11.408,16.173 10.901,16.173 10.868,16.173 10.834,16.172 10.8,16.17 10.336,16.143 10.119,15.945 9.845,15.695 9.7,15.563 9.55,15.426 9.356,15.313 L 9.352,15.311 C 8.935,15.075 8.676,14.782 8.66,14.527 8.652,14.401 8.708,14.291 8.828,14.201 9.088,14.006 9.262,13.879 9.377,13.794 9.505,13.701 9.544,13.673 9.573,13.645 9.593,13.626 9.615,13.604 9.639,13.581 9.878,13.349 10.277,12.961 10.891,12.961 11.266,12.961 11.681,13.105 12.123,13.389 12.331,13.525 12.512,13.587 12.742,13.667 12.899,13.721 13.078,13.783 13.318,13.885 L 13.322,13.887 C 13.545,13.979 13.809,14.146 13.797,14.423 Z M 13.674,13.424 C 13.631,13.402 13.586,13.382 13.539,13.362 13.323,13.27 13.15,13.207 13.007,13.157 13.086,13.002 13.135,12.808 13.14,12.598 V 12.598 C 13.151,12.086 12.893,11.671 12.564,11.67 12.234,11.67 11.959,12.084 11.948,12.595 V 12.595 C 11.947,12.612 11.947,12.629 11.947,12.645 11.745,12.552 11.545,12.484 11.35,12.443 11.349,12.423 11.348,12.404 11.348,12.385 V 12.384 C 11.329,11.453 11.901,10.681 12.625,10.662 13.349,10.642 13.951,11.381 13.97,12.313 V 12.314 C 13.979,12.735 13.866,13.123 13.673,13.424 Z"/>
 </g>
</svg>
